assets/img/item/why/manifacture.svg

<svg width="100" height="100" viewBox="0 0 100 100" fill="none" xmlns="http://www.w3.org/2000/svg">
<path d="M0 56.0646C0.860877 54.2979 1.96096 52.8934 3.95683 52.526C4.33776 52.4559 4.72799 52.4014 5.11414 52.4001C7.81611 52.3903 10.5183 52.3782 13.2201 52.4037C15.1507 52.4218 16.6992 53.2259 17.677 54.9106C18.0417 55.5389 18.4469 55.7584 19.1478 55.7273C22.6065 55.574 25.9642 55.9834 29.0945 57.6055C30.257 58.208 31.3097 58.9684 32.3564 59.7432C34.6492 61.4404 37.2183 62.3415 40.0756 62.3602C43.0705 62.3797 46.066 62.3351 49.0604 62.3782C53.5846 62.4432 57.5631 65.4393 58.6939 69.5746C59.0259 70.7884 59.0218 72.0122 58.7722 73.2386C58.7271 73.4601 58.6235 73.6741 58.7832 73.9523C59.7074 74.2877 60.5954 73.9145 61.4731 73.6225C71.2829 70.3593 81.0987 67.1136 90.8892 63.7934C93.7023 62.8394 96.1885 63.0506 98.3649 65.1861C99.1511 65.9576 99.569 66.951 99.9726 68.0244C100.007 68.9343 100.007 69.7854 99.9836 70.7931C99.4589 72.8833 98.2708 74.2356 96.5689 75.2665C86.5849 81.3143 76.6124 87.3813 66.6624 93.4848C63.9802 95.13 61.1563 95.9397 57.9866 95.925C44.7152 95.8637 31.4433 95.8991 18.1717 95.9012C17.6584 95.9013 17.1517 95.8448 16.7113 96.2648C15.6413 97.2855 14.3157 97.6428 12.8655 97.6388C10.6211 97.6325 8.37344 97.563 6.13286 97.6566C3.19027 97.7797 1.09653 96.6641 0 93.8664C0 81.2963 0 68.7262 0 56.0646ZM84.0255 78.7545C84.7746 78.2958 85.5222 77.8344 86.2732 77.3787C89.1103 75.6571 91.9504 73.9403 94.7855 72.2155C96.1688 71.3739 96.7694 70.2908 96.5207 69.127C96.1013 67.165 94.5537 66.3275 92.499 67.0106C83.2772 70.0768 74.0451 73.1137 64.8518 76.2635C62.0716 77.2161 59.2953 77.7306 56.3558 77.6556C52.6157 77.5603 48.8713 77.6248 45.1289 77.6375C44.123 77.6409 43.1169 77.6499 42.1165 77.8278C39.885 78.2247 37.963 79.2716 36.1212 80.5354C35.1727 81.1863 34.0826 80.9649 33.5347 80.1232C32.9831 79.2758 33.1732 78.3233 34.0911 77.6499C37.1619 75.3966 40.566 74.0826 44.4162 74.0751C47.5404 74.069 50.6648 74.0557 53.7886 74.0861C54.4887 74.0929 54.9 73.8411 55.1001 73.1937C55.2534 72.6976 55.4048 72.2072 55.4139 71.6752C55.461 68.907 52.6386 66.0781 49.6231 66.0078C46.5656 65.9366 43.5048 66.0143 40.4466 65.9619C36.8145 65.8997 33.3773 65.0156 30.5021 62.7464C27.3018 60.2204 23.7725 59.0444 19.721 59.2957C18.434 59.3755 18.4281 59.3138 18.428 60.6006C18.4277 70.7541 18.4282 80.9077 18.4285 91.0613C18.4286 92.4308 18.4288 92.432 19.8252 92.432C32.6149 92.4321 45.4045 92.4261 58.1941 92.4369C60.4676 92.4389 62.5378 91.8504 64.4806 90.6584C70.9422 86.694 77.4269 82.7672 84.0255 78.7545ZM14.8626 60.7586C14.8626 59.815 14.8762 58.8711 14.8596 57.9278C14.8339 56.4676 14.3684 55.9839 12.9195 55.9733C10.4141 55.9548 7.90837 55.9543 5.40301 55.9735C3.93397 55.9848 3.42267 56.5094 3.3951 57.9929C3.37334 59.164 3.38932 60.3357 3.38936 61.5071C3.38972 71.4315 3.39008 81.356 3.3909 91.2804C3.3911 93.6397 3.75898 94.0188 6.06542 94.0233C8.24554 94.0275 10.4257 94.0309 12.6058 94.0243C14.4617 94.0187 14.8523 93.6265 14.8529 91.801C14.8565 81.5187 14.8595 71.2363 14.8626 60.7586Z" fill="#0769CD"/>
<path d="M59.1921 1.75457C62.5502 3.44357 65.7047 5.33273 68.836 7.25286C70.349 8.1806 70.6468 10.1812 69.7118 11.8676C69.0652 13.0339 68.3957 14.1879 67.7198 15.3376C67.4639 15.7729 67.4133 16.1437 67.7494 16.5835C68.5623 17.6471 69.2241 18.8103 69.7484 20.0395C69.9968 20.6217 70.3702 20.774 70.9596 20.7588C72.2606 20.7253 73.5631 20.7391 74.8648 20.7528C77.0066 20.7753 78.3859 22.1726 78.3899 24.3228C78.3958 27.5123 78.3936 30.7018 78.3914 33.8912C78.3899 36.1211 77.0176 37.561 74.7848 37.626C73.5167 37.663 72.2453 37.6598 70.9777 37.613C70.2878 37.5875 69.9051 37.8502 69.6376 38.474C69.1496 39.612 68.5461 40.6963 67.7877 41.6783C67.403 42.1765 67.4629 42.5977 67.7663 43.0986C68.4238 44.1836 69.0646 45.28 69.6714 46.394C70.7543 48.3824 70.2566 50.2707 68.3204 51.411C65.6296 52.9957 62.9274 54.5619 60.2056 56.0927C58.0016 57.3322 56.2043 56.7915 54.9552 54.5931C54.3606 53.5466 53.7427 52.5128 53.1682 51.4554C52.8828 50.9301 52.5351 50.7081 51.9124 50.8149C50.6553 51.0306 49.382 51.0362 48.1248 50.8157C47.5057 50.7071 47.1503 50.9212 46.8615 51.4457C46.2494 52.5568 45.6137 53.6554 44.9647 54.7455C43.7414 56.8002 41.8878 57.3038 39.8193 56.1233C37.0785 54.5591 34.3459 52.9805 31.6234 51.3847C29.7464 50.2845 29.2261 48.3308 30.2844 46.4345C30.9344 45.2698 31.5939 44.1091 32.2925 42.9733C32.6041 42.4668 32.5069 42.0886 32.1844 41.6474C31.4534 40.6473 30.817 39.5813 30.3276 38.4449C30.0697 37.8458 29.7179 37.606 29.0706 37.625C27.835 37.6613 26.5972 37.6506 25.3608 37.6282C22.9625 37.5848 21.6135 36.2217 21.6095 33.8502C21.6041 30.6608 21.5987 27.4713 21.611 24.2819C21.6193 22.1301 23.0026 20.7654 25.1638 20.7508C26.4655 20.742 27.7681 20.7222 29.0689 20.7592C29.6807 20.7767 30.0117 20.5482 30.2608 19.995C30.7955 18.8076 31.4265 17.6653 32.2277 16.6326C32.5812 16.1771 32.566 15.7839 32.274 15.3018C31.5832 14.1612 30.9177 13.0043 30.2737 11.8364C29.2427 9.96626 29.751 8.04795 31.5968 6.96293C34.3454 5.34719 37.1074 3.75368 39.8816 2.1823C41.8955 1.04158 43.7666 1.56684 44.9487 3.56192C45.5788 4.62547 46.2082 5.69057 46.7964 6.7774C47.0783 7.29806 47.422 7.51408 48.0341 7.49029C49.3338 7.43977 50.6387 7.43521 51.9379 7.49227C52.597 7.52121 52.9431 7.26699 53.2362 6.7158C53.8163 5.62477 54.4383 4.55483 55.0741 3.49486C56.035 1.89282 57.2504 1.37416 59.1921 1.75457ZM35.4636 49.5002C37.5398 50.7054 39.6161 51.9106 41.7928 53.1742C42.7243 51.5482 43.6483 50.0242 44.4812 48.4519C45.0727 47.3353 45.9272 46.9499 47.1324 47.1451C49.0402 47.4541 50.9495 47.4328 52.8622 47.1541C54.2867 46.9465 54.7596 47.1995 55.489 48.4547C56.3838 49.9947 57.2796 51.5342 58.1504 53.0315C58.3249 53.0189 58.4003 53.0352 58.4502 53.0068C60.9946 51.5572 63.5343 50.0994 66.0814 48.6545C66.5779 48.3728 66.557 48.036 66.3048 47.6034C65.5018 46.226 64.7078 44.8433 63.9171 43.4588C63.2203 42.2389 63.2362 41.7964 64.1004 40.7197C65.354 39.1578 66.3339 37.4451 67.0668 35.5838C67.5508 34.3545 68.0083 34.0509 69.356 34.0428C70.8859 34.0336 72.4163 34.0213 73.9457 34.0503C74.6258 34.0632 74.9569 33.8756 74.9479 33.1177C74.9163 30.4488 74.9205 27.7791 74.9455 25.11C74.952 24.4207 74.678 24.1977 74.0174 24.2087C72.3902 24.2356 70.7618 24.1911 69.1348 24.2236C68.1211 24.2439 67.4681 23.826 67.1152 22.8797C66.3814 20.912 65.3669 19.1007 64.0133 17.4904C63.3373 16.6862 63.295 15.8808 63.8336 14.9811C64.6358 13.6411 65.3584 12.2526 66.1848 10.9284C66.5923 10.2754 66.5095 9.92846 65.8438 9.5543C63.5747 8.27887 61.3323 6.95573 59.0741 5.66064C58.8016 5.50436 58.5401 5.27474 58.1532 5.35047C58.1236 5.38549 58.0733 5.43001 58.0413 5.48515C57.1749 6.97595 56.3165 8.47148 55.4435 9.9584C54.7341 11.1668 54.2654 11.3837 52.8833 11.1519C50.9399 10.8259 48.9973 10.862 47.0553 11.1489C45.7166 11.3466 45.2678 11.1526 44.5783 9.9793C43.7705 8.60466 42.9718 7.22443 42.1905 5.83457C41.9118 5.33876 41.6349 5.22498 41.1054 5.53649C38.7776 6.90591 36.4371 8.25467 34.0792 9.57129C33.4171 9.94094 33.4168 10.2939 33.782 10.8877C34.6 12.2175 35.3345 13.5986 36.145 14.9334C36.7097 15.8635 36.6719 16.6971 35.9689 17.5294C34.6107 19.1371 33.6093 20.954 32.8698 22.9194C32.5322 23.8167 31.9114 24.2454 30.9272 24.2248C29.3002 24.1907 27.6717 24.2372 26.0446 24.206C25.3469 24.1926 25.0492 24.413 25.0576 25.1546C25.0879 27.8236 25.087 30.4933 25.0572 33.1623C25.0493 33.8636 25.3273 34.0619 25.9828 34.0498C27.5774 34.0204 29.1728 34.043 30.7679 34.0427C31.8184 34.0424 32.5423 34.444 32.9163 35.5083C33.6018 37.4598 34.6596 39.217 35.9843 40.8036C36.6278 41.5742 36.7364 42.3499 36.2247 43.2232C35.6326 44.2339 35.0582 45.2551 34.4819 46.2749C33.3397 48.2961 33.3414 48.297 35.4636 49.5002Z" fill="#0769CD"/>
<path d="M59.6746 17.5818C64.277 21.7215 66.084 26.7907 64.6253 32.7431C63.2088 38.5234 59.4435 42.2885 53.6699 43.7859C44.9433 46.0492 36.3209 40.174 35.0758 31.2509C33.9013 22.8333 39.8432 15.0563 48.2542 14.1554C52.4688 13.704 56.3115 14.8006 59.6746 17.5818ZM42.7429 38.1345C44.9063 39.8579 47.3495 40.7241 50.1369 40.6969C57.1666 40.6284 62.6469 34.1984 61.4087 27.2753C60.5968 22.7359 57.9124 19.6016 53.5188 18.1804C49.1142 16.7557 45.1192 17.7907 41.833 21.0072C37.1393 25.6012 37.224 33.5292 42.7429 38.1345Z" fill="#0769CD"/>
<path d="M42.181 32.2982C40.0935 26.295 44.1638 20.6197 50.3811 20.7548C54.6568 20.8477 58.2494 24.4668 58.4466 28.8798C58.6363 33.1229 55.3281 36.9626 51.1513 37.5069C47.0085 38.0467 43.4993 35.5905 42.181 32.2982ZM47.449 24.9806C47.2167 25.1571 46.9717 25.3195 46.7539 25.5125C45.0862 26.9908 44.641 29.5216 45.6988 31.4706C46.7773 33.4578 49.0463 34.479 51.1376 33.9089C53.059 33.3852 54.3556 32.1647 54.7551 30.2226C55.1557 28.2753 54.6329 26.5333 52.966 25.2967C51.2645 24.0345 49.4513 23.9318 47.449 24.9806Z" fill="#0769CD"/>
</svg>

<svg width="100" height="100" fill="none" xmlns="http://www.w3.org/2000/svg"><path d="M0 56.065c.86-1.767 1.961-3.172 3.957-3.539.38-.07.771-.125 1.157-.126 2.702-.01 5.404-.022 8.106.004 1.93.018 3.48.822 4.457 2.507.365.628.77.847 1.47.816 3.46-.153 6.817.256 9.948 1.879 1.162.602 2.215 1.362 3.261 2.137 2.293 1.697 4.862 2.599 7.72 2.617 2.995.02 5.99-.025 8.984.018 4.525.065 8.503 3.061 9.634 7.197.332 1.213.328 2.437.078 3.664-.045.221-.148.435.011.713.924.336 1.812-.037 2.69-.33 9.81-3.263 19.626-6.508 29.416-9.829 2.813-.954 5.3-.742 7.476 1.393.786.772 1.204 1.765 1.608 2.838.034.91.034 1.761.01 2.77-.524 2.09-1.712 3.442-3.414 4.472a6263.982 6263.982 0 00-29.907 18.219c-2.682 1.645-5.506 2.455-8.675 2.44-13.272-.061-26.544-.026-39.815-.024-.514 0-1.02-.056-1.46.364-1.07 1.02-2.396 1.378-3.846 1.374-2.245-.007-4.493-.076-6.733.018-2.943.123-5.036-.993-6.133-3.79V56.064zm84.025 22.69c.75-.46 1.497-.92 2.248-1.376 2.837-1.722 5.677-3.439 8.513-5.163 1.383-.842 1.983-1.925 1.735-3.089-.42-1.962-1.967-2.8-4.022-2.116-9.222 3.066-18.454 6.103-27.647 9.252-2.78.953-5.557 1.468-8.496 1.393-3.74-.096-7.485-.031-11.227-.019-1.006.004-2.012.013-3.012.19-2.232.398-4.154 1.445-5.996 2.708-.948.651-2.038.43-2.586-.412-.552-.847-.362-1.8.556-2.473 3.07-2.253 6.475-3.567 10.325-3.575 3.124-.006 6.249-.02 9.373.011.7.007 1.111-.245 1.311-.892.153-.496.305-.987.314-1.519.047-2.768-2.775-5.597-5.79-5.667-3.058-.071-6.12.006-9.177-.046-3.633-.062-7.07-.946-9.945-3.216-3.2-2.526-6.73-3.702-10.781-3.45-1.287.08-1.293.018-1.293 1.305v30.46c0 1.37 0 1.371 1.397 1.371 12.79 0 25.58-.006 38.37.005 2.273.002 4.343-.587 6.286-1.779 6.461-3.964 12.946-7.89 19.544-11.904zM14.863 60.758c0-.944.013-1.888-.003-2.831-.026-1.46-.492-1.944-1.94-1.955a499.544 499.544 0 00-7.517 0c-1.469.012-1.98.536-2.008 2.02-.022 1.171-.006 2.343-.006 3.514l.002 29.773c0 2.36.368 2.739 2.674 2.743 2.18.005 4.36.008 6.54.001 1.857-.005 2.247-.398 2.248-2.223l.01-31.042z" fill="#0769CD"/><path d="M59.192 1.755c3.358 1.689 6.513 3.578 9.644 5.498 1.513.928 1.81 2.928.876 4.615a158.471 158.471 0 01-1.992 3.47c-.256.435-.307.806.03 1.246a16.031 16.031 0 011.998 3.456c.249.582.622.734 1.212.719 1.3-.034 2.603-.02 3.905-.006 2.142.022 3.52 1.42 3.525 3.57.006 3.19.004 6.379.001 9.568-.001 2.23-1.373 3.67-3.606 3.735-1.268.037-2.54.034-3.807-.013-.69-.026-1.073.237-1.34.861-.488 1.138-1.092 2.222-1.85 3.204-.385.498-.325.92-.022 1.42a82.7 82.7 0 011.905 3.296c1.083 1.988.586 3.877-1.35 5.017a470.527 470.527 0 01-8.115 4.682c-2.204 1.24-4.002.698-5.25-1.5-.595-1.046-1.213-2.08-1.788-3.138-.285-.525-.633-.747-1.256-.64-1.257.216-2.53.221-3.787 0-.62-.108-.975.106-1.264.63a113.744 113.744 0 01-1.896 3.3c-1.224 2.055-3.077 2.559-5.146 1.378a818.151 818.151 0 01-8.196-4.738c-1.877-1.1-2.397-3.054-1.339-4.95a94.412 94.412 0 012.008-3.462c.312-.506.215-.884-.108-1.326a16.52 16.52 0 01-1.856-3.202c-.258-.6-.61-.839-1.257-.82a78.162 78.162 0 01-3.71.003c-2.399-.043-3.748-1.406-3.752-3.778-.005-3.19-.01-6.379.002-9.568.008-2.152 1.392-3.517 3.553-3.531 1.301-.009 2.604-.029 3.905.008.612.018.943-.21 1.192-.764.535-1.187 1.166-2.33 1.967-3.362.353-.456.338-.85.046-1.331a98.51 98.51 0 01-2-3.466c-1.031-1.87-.523-3.788 1.323-4.873a571.78 571.78 0 018.285-4.78c2.014-1.141 3.885-.616 5.067 1.379a95.662 95.662 0 011.847 3.215c.282.521.626.737 1.238.713a47.24 47.24 0 013.904.002c.659.03 1.005-.225 1.298-.776a71.895 71.895 0 011.838-3.221c.961-1.602 2.176-2.12 4.118-1.74zM35.464 49.5l6.329 3.674c.931-1.626 1.855-3.15 2.688-4.722.592-1.117 1.446-1.502 2.651-1.307 1.908.31 3.818.288 5.73.01 1.425-.209 1.898.044 2.627 1.3l2.661 4.577c.175-.013.25.003.3-.025 2.545-1.45 5.084-2.908 7.631-4.352.497-.282.476-.619.224-1.052a536.984 536.984 0 01-2.388-4.144c-.697-1.22-.68-1.663.183-2.74a19.635 19.635 0 002.967-5.135c.484-1.23.941-1.533 2.289-1.541 1.53-.01 3.06-.022 4.59.007.68.013 1.01-.174 1.002-.932a377.65 377.65 0 01-.002-8.008c.006-.69-.268-.912-.929-.901-1.627.027-3.255-.018-4.882.015-1.014.02-1.667-.398-2.02-1.344-.734-1.968-1.748-3.78-3.102-5.39-.676-.804-.718-1.61-.18-2.509.803-1.34 1.525-2.728 2.352-4.053.407-.653.325-1-.341-1.374-2.27-1.275-4.512-2.598-6.77-3.893-.272-.157-.534-.386-.92-.31-.03.034-.08.079-.113.134-.866 1.49-1.724 2.986-2.597 4.473-.71 1.209-1.179 1.426-2.56 1.194-1.944-.326-3.887-.29-5.829-.003-1.338.198-1.787.004-2.477-1.17a249.576 249.576 0 01-2.388-4.144c-.278-.496-.555-.61-1.085-.299a360.056 360.056 0 01-7.026 4.035c-.662.37-.662.723-.297 1.317.818 1.33 1.553 2.71 2.363 4.045.565.93.527 1.764-.176 2.596-1.358 1.608-2.36 3.425-3.1 5.39-.337.898-.958 1.326-1.942 1.306-1.627-.034-3.255.012-4.882-.019-.698-.013-.996.207-.987.949.03 2.669.029 5.338 0 8.007-.009.702.27.9.925.888 1.594-.03 3.19-.007 4.785-.007 1.05 0 1.774.401 2.148 1.465.686 1.952 1.744 3.709 3.068 5.296.644.77.752 1.546.24 2.42-.591 1.01-1.166 2.031-1.742 3.05-1.142 2.022-1.14 2.023.982 3.226z" fill="#0769CD"/><path d="M59.675 17.582c4.602 4.14 6.409 9.209 4.95 15.161-1.416 5.78-5.181 9.545-10.955 11.043-8.727 2.263-17.35-3.612-18.594-12.535-1.175-8.418 4.767-16.195 13.178-17.096 4.215-.451 8.058.646 11.42 3.427zM42.743 38.135c2.163 1.723 4.606 2.59 7.394 2.562 7.03-.069 12.51-6.499 11.272-13.422-.812-4.54-3.497-7.673-7.89-9.095-4.405-1.424-8.4-.39-11.686 2.827-4.694 4.594-4.609 12.522.91 17.128z" fill="#0769CD"/><path d="M42.181 32.298c-2.087-6.003 1.983-11.678 8.2-11.543 4.276.093 7.868 3.712 8.066 8.125.19 4.243-3.119 8.083-7.296 8.627a8.458 8.458 0 01-8.97-5.209zm5.268-7.317c-.232.176-.477.338-.695.531-1.668 1.479-2.113 4.01-1.055 5.959 1.078 1.987 3.347 3.008 5.439 2.438 1.921-.524 3.218-1.744 3.617-3.686.4-1.948-.122-3.69-1.789-4.926-1.702-1.262-3.515-1.365-5.517-.316z" fill="#0769CD"/></svg>
